FINK
CUT[AUS DEM DOERFLEIN DA DRUEBEN]
REG[Europa, Mitteleuropa, Deutschland]
KEY[F0790  16 Eb 3/4]
MEL[12  3_345__3_5_  +1_765__0_
    54  3_345__3_+1_  5_3_1__0_
    2_  2__2_2_2_22  3_.33__0_
    12  3__3_3_4323  4_4_4__0__  -7__0__.
    12  3_345__3_5_  +1_765__0_
    12  3_345__3_1_  2_2_1__0_
    34  5__5__5__  6__6__
    6__  7__.6_7__  +1__0__-5__  -5___0_ //] >>
FCT[Geselligkeits -, Tageszeiten - Lied, Abend]
